X: 41257
T: Tsizik Polkka
R: polka
M: 2/4
K: Aminor
d|:e>a gf|ed cA|B>d df|ed e2|
e>a ae|fe dc|B>f ed|cB A2:|
|:e2 ed/e/|fe dc|B>d df|ed ec|
e2 ed/e/|fe dc|B>f ed|cB A2:|

